images/social-linkedin.svg

<?xml version="1.0" encoding="UTF-8"?>
<svg width="90px" height="90px" viewBox="0 0 90 90" version="1.1" xmlns="http://www.w3.org/2000/svg" xmlns:xlink="http://www.w3.org/1999/xlink">
    <!-- Generator: Sketch 42 (36781) - http://www.bohemiancoding.com/sketch -->
    <title>Page 1</title>
    <desc>Created with Sketch.</desc>
    <defs>
        <polygon id="path-1" points="89.8147378 89.8158237 0 89.8158237 0 6.26450116e-05 89.8147378 6.26450116e-05"></polygon>
    </defs>
    <g stroke="none" stroke-width="1" fill="none" fill-rule="evenodd">
        <g>
            <mask id="mask-2" fill="white">
                <use xlink:href="#path-1"></use>
            </mask>
            <g></g>
            <path d="M48.211768,40.5084153 C48.2349466,40.4704107 48.267522,40.4246798 48.299471,40.3802019 L48.299471,40.5084153 L48.211768,40.5084153 Z M76.1464316,75.1820116 L62.5806543,75.1820116 L62.5806543,53.4857471 C62.5806543,48.0343782 60.6148538,44.3145174 55.7089142,44.3145174 C51.9558515,44.3145174 49.7279861,46.8240766 48.7496798,49.2469768 C48.387174,50.1123132 48.2973828,51.3226148 48.2973828,52.5312459 L48.2973828,75.1811763 L34.7339026,75.1811763 C34.7339026,75.1811763 34.9113968,38.4338213 34.7339026,34.6306427 L48.299471,34.6306427 L48.299471,40.3795754 C50.1003063,37.6171392 53.3183805,33.6765592 60.522348,33.6765592 C69.4513503,33.6765592 76.1464316,39.4689258 76.1464316,51.9300626 L76.1464316,75.1820116 Z M20.4454107,29.0913619 L20.3541578,29.0913619 C15.8034153,29.0913619 12.8534617,25.9791578 12.8534617,22.0828469 C12.8534617,18.1080209 15.8900742,15.0801787 20.5310255,15.0801787 C25.1723944,15.0801787 28.0273364,18.1071856 28.1175452,22.0828469 C28.1175452,25.979993 25.1734385,29.0913619 20.4454107,29.0913619 L20.4454107,29.0913619 Z M13.6588677,75.1820116 L27.229239,75.1820116 L27.229239,34.6312691 L13.6588677,34.6312691 L13.6588677,75.1820116 Z M83.1829281,6.26450116e-05 L6.63615313,6.26450116e-05 C2.9707935,6.26450116e-05 -4.17633411e-05,2.88027146 -4.17633411e-05,6.43516705 L-4.17633411e-05,83.3780673 C-4.17633411e-05,86.9329629 2.97183759,89.8158863 6.63615313,89.8158863 L83.1829281,89.8158863 C86.8472436,89.8158863 89.8147378,86.9310835 89.8147378,83.3780673 L89.8147378,6.43516705 C89.8147378,2.88131555 86.8472436,6.26450116e-05 83.1829281,6.26450116e-05 L83.1829281,6.26450116e-05 Z" fill="#E0E0E0" mask="url(#mask-2)"></path>
        </g>
    </g>
</svg>

<svg width="90" height="90" viewBox="0 0 90 90" xmlns="http://www.w3.org/2000/svg" xmlns:xlink="http://www.w3.org/1999/xlink"><title>Page 1</title><defs><path id="a" d="M89.815 89.816H0V0h89.815z"/></defs><g fill="none" fill-rule="evenodd"><mask id="b" fill="#fff"><use xlink:href="#a"/></mask><path d="M48.212 40.508a2.24 2.24 0 0 1 .087-.128v.128h-.087zm27.934 34.674H62.581V53.486c0-5.452-1.966-9.171-6.872-9.171-3.753 0-5.981 2.51-6.96 4.932-.362.865-.452 2.076-.452 3.284v22.65H34.734s.177-36.747 0-40.55h13.565v5.749c1.801-2.763 5.02-6.703 12.223-6.703 8.93 0 15.624 5.792 15.624 18.253v23.252zm-55.7-46.09h-.092c-4.55 0-7.5-3.113-7.5-7.01 0-3.974 3.036-7.002 7.677-7.002s7.496 3.027 7.587 7.003c0 3.897-2.945 7.008-7.673 7.008zm-6.787 46.09h13.57v-40.55H13.66v40.55zM83.183 0H6.636C2.971 0 0 2.88 0 6.435v76.943c0 3.555 2.972 6.438 6.636 6.438h76.547c3.664 0 6.632-2.885 6.632-6.438V6.435C89.815 2.881 86.847 0 83.183 0z" fill="#E0E0E0" mask="url(#b)"/></g></svg>
